assets/Door/Flat/door_flat.svg

<svg width="32" height="32" viewBox="0 0 32 32" fill="none" xmlns="http://www.w3.org/2000/svg">
<path d="M8 4C8 2.89543 8.89543 2 10 2H22C23.1046 2 24 2.89543 24 4V28C24 29.1046 23.1046 30 22 30H10C8.89543 30 8 29.1046 8 28V4Z" fill="#E19747"/>
<path d="M10 5C10 4.44772 10.4477 4 11 4H21C21.5523 4 22 4.44772 22 5V12C22 12.5523 21.5523 13 21 13H11C10.4477 13 10 12.5523 10 12V5Z" fill="#D3883E"/>
<path d="M10 17C10 16.4477 10.4477 16 11 16H21C21.5523 16 22 16.4477 22 17V20C22 20.5523 21.5523 21 21 21H11C10.4477 21 10 20.5523 10 20V17Z" fill="#D3883E"/>
<path d="M11 23C10.4477 23 10 23.4477 10 24V27C10 27.5523 10.4477 28 11 28H21C21.5523 28 22 27.5523 22 27V24C22 23.4477 21.5523 23 21 23H11Z" fill="#D3883E"/>
<path d="M23.25 14.5C23.25 15.0523 22.8023 15.5 22.25 15.5C21.6977 15.5 21.25 15.0523 21.25 14.5C21.25 13.9477 21.6977 13.5 22.25 13.5C22.8023 13.5 23.25 13.9477 23.25 14.5Z" fill="#F9C23C"/>
</svg>

<svg xmlns="http://www.w3.org/2000/svg" width="32" height="32" fill="none"><path fill="#E19747" d="M8 4a2 2 0 0 1 2-2h12a2 2 0 0 1 2 2v24a2 2 0 0 1-2 2H10a2 2 0 0 1-2-2V4Z"/><path fill="#D3883E" d="M10 5a1 1 0 0 1 1-1h10a1 1 0 0 1 1 1v7a1 1 0 0 1-1 1H11a1 1 0 0 1-1-1V5ZM10 17a1 1 0 0 1 1-1h10a1 1 0 0 1 1 1v3a1 1 0 0 1-1 1H11a1 1 0 0 1-1-1v-3ZM11 23a1 1 0 0 0-1 1v3a1 1 0 0 0 1 1h10a1 1 0 0 0 1-1v-3a1 1 0 0 0-1-1H11Z"/><path fill="#F9C23C" d="M23.25 14.5a1 1 0 1 1-2 0 1 1 0 0 1 2 0Z"/></svg>
